X:119
T:The Dilemma of Dots
M:6/8
L:1/8
C:© Paul Gitlitz 1988
R:Jig
B:Giblitz Fancy, 169 Brand New Old Time Fiddle Tunes Vol. 3
N:Vanity thy name is women
D:"To Have and To Hold" available @ www.glitchless.net
K:Dm
A,|"Dm"DA,D FDF|AFA d2 e|fag edc|"C"edc "F"AGF|!
"Dm"DA,D FDF|AFA d2e|fag "A"ed^c|"Dm"(d3d2):|!
|:e|"Dm"fdf afd|"C"ece gec|ece gag|fgf "A"ed^c|!
"Dm"fdf afd|"C"ece ~g2e|gag "A"ed^c|"Dm"(d3d2):|]
